X:1
T:Title
%%score { ( 1 3 ) | ( 2 4 ) }
L:1/8
M:4/4
K:Bb
V:1 treble nm="Grand Piano"
V:3 treble 
V:2 bass 
V:4 bass 
V:1
 z4 z2[Q:1/4=112] [DF]2 | [Fd]3 [Ec] [DB]2 [FA]2 | [EG]2 [EA]2 [DB]2 [FB]2 | %3
 [Ee]2 [Fd]2 [Gc]2 [GB]2 |[M:3/4] z2 z2 c2 |[M:1/4] [A,F]2 |[M:4/4] [Fd]3 [Ec] [DB]2 [FA]2 | %7
 [EG]2 [FA]2 [FB]2 c2 | d2 [B=e]2 [Af]2 cB |[M:3/4] A2 [=EG]2 F2 |[M:1/4] F2 |[M:4/4] f3 d e2 c2 | %12
 d2 B2 c2 F2 | f3 d e2 c2 |[M:3/4] d2 B2 c2 |[M:1/4] [A,F]2 |[M:4/4] [B,FB]3 [CFA] [B,FB]2 [Fc]2 | %17
 [Fd]3 [=E_d] [F=d]2 [Fd]2 | [CFc]2 [DFB]2 [CFA]2 [CGB]2 |[M:7/8] [CFA]2 [B,=EG]2 [A,F]3 | %20
[M:1/4] [A,F]2 |[M:4/4] [Fd]3 B d3 B | e2 B2 d2 d2 | d3 G d3 G |[M:3/4] [Ge]2 [Gd]2 [Gc]2 | %25
[M:1/4] [GB]2 |[M:4/4] [FA]2 [Fc]2 [Ff]2 [FA]2 | [FB]2 [Fd]2 [Ff]2 [Fd]2 | %28
 [CFc]2 [DFB]2 [CFA]2 [CGB]2 |[M:3/4] [CFA]2 [B,=EG]2 [A,F]2 |[M:1/4] [A,F]2 | %31
[M:4/4] [Fd]3 B d3 B | [Ge]2 [^FB]2 [=Fd]2 d2 | d3 G d3 G |[M:3/4] [Ge]2 [Gd]2 [Gc]2 | %35
[M:1/4] [GB]2 |[M:4/4] [FA]2 [Fc]2 [Ff]3 [FA] | [FB]2 [Fd]2 [Ff]2 [Ge]2 | d3 d d3 d | %39
[M:9/8] [FBd]3 .[EAc]3 [DFB]3 |] %40
V:2
 z4 z2 [B,,B,]2 | [B,,B,]3 [B,,F,] [B,,F,]2 [D,B,]2 | [E,B,]2 [C,F,]2 [B,,F,]2 [D,B,]2 | %3
 [G,B,]2 [F,B,]2 [E,C]2 [=E,C]2 |[M:3/4] [F,CF]2 [G,C=E]2 .[F,A,F]2 |[M:1/4] D,C, | %6
[M:4/4] [B,,B,]3 [B,,F,] [B,,F,]2 [D,B,]2 | [E,B,]2 [C,C]2 [D,B,]2[K:treble] [F,A,F]2 | %8
 z4[K:bass] z2[K:treble] F2 |[M:3/4] [CF]2[K:bass] [C,B,]2 [F,A,]2 |[M:1/4] [F,A,]2 | %11
[M:4/4] D4 z4 | z8 | D4 z4 |[M:3/4] z6 |[M:1/4] E,2 |[M:4/4] D,3 C, D,2 [F,A,]2 | %17
 [B,,B,]3 [B,,B,] [B,,B,]2 [B,,B,]2 | A,,2 B,,2 C,2 C,2 |[M:7/8] C,2 C,2 F,3 |[M:1/4] F,2 | %21
[M:4/4] z2 z[K:treble] D F3 [B,D] | [B,G]2 [B,^F]2 [B,=F]2 [B,F]2 | F3 F F3 [G,=B,F] | %24
[M:3/4][K:bass] [C,C]2 [D,=B,]2 [E,C]2 |[M:1/4] [=E,C]2 |[M:4/4] [F,C]2 [E,A,]2 [D,B,]2 [E,C]2 | %27
 [D,B,]2 [B,,B,]2 [D,B,]2 [B,,B,]2 | A,,2 B,,2 C,2 C,2 |[M:3/4] C,2 C,2 F,2 |[M:1/4] F,2 | %31
[M:4/4] z2 z[K:treble] D F3[K:bass] [B,D] | [B,,B,]2 [B,,B,]2 [B,,B,]2[K:treble] [B,F]2 | %33
 [G,=B,F]3 [G,B,F] [G,B,F]3 [G,B,F] |[M:3/4][K:bass] [C,C]2 [D,=B,]2 [E,C]2 |[M:1/4] [=E,C]2 | %36
[M:4/4] [F,C]2 [E,A,]2 [D,B,]3 [E,C] | [D,B,]2 [B,,B,]2 [D,B,]2 [E,B,]2 | %38
 [F,B,F]3 [F,B,F] [F,B,F]3 [F,DF] |[M:9/8] F,3 z F2 B,,3 |] %40
V:3
 x8 | x8 | x8 | x8 |[M:3/4] A2 B2 z E, |[M:1/4] x2 |[M:4/4] x8 | x8 | x8 |[M:3/4] x6 |[M:1/4] x2 | %11
[M:4/4] x8 | x8 | x8 |[M:3/4] x6 |[M:1/4] x2 |[M:4/4] x8 | x8 | x8 |[M:7/8] x7 |[M:1/4] x2 | %21
[M:4/4] x8 | x8 | x8 |[M:3/4] x6 |[M:1/4] x2 |[M:4/4] x8 | x8 | x8 |[M:3/4] x6 |[M:1/4] x2 | %31
[M:4/4] x8 | x8 | x8 |[M:3/4] x6 |[M:1/4] x2 |[M:4/4] x8 | x8 | x8 |[M:9/8] x9 |] %40
V:4
 x8 | x8 | x8 | x8 |[M:3/4] x6 |[M:1/4] x2 |[M:4/4] x8 | x6[K:treble] x2 | %8
 [B,F]2[K:bass] [G,C]2 [F,C]2[K:treble] [A,C][B,D] |[M:3/4] x2[K:bass] x4 |[M:1/4] x2 | %11
[M:4/4] [F,F]3- [F,-=B,F-] [F,-CF-]2 [F,-A,F-]2 | [F,-B,F-]2 [F,-G,F-]2 [F,A,F]2 [F,A,]2 | %13
 [F,F]3- [F,-=B,F-] [F,-CF-]2 [F,-A,F-]2 |[M:3/4] [F,-B,F-]2 [F,-G,F-]2 [F,A,F]2 |[M:1/4] x2 | %16
[M:4/4] x8 | x8 | x8 |[M:7/8] x7 |[M:1/4] x2 |[M:4/4] B,8[K:treble] | x8 | [G,=B,]8 | %24
[M:3/4][K:bass] x6 |[M:1/4] x2 |[M:4/4] x8 | x8 | x8 |[M:3/4] x6 |[M:1/4] x2 | %31
[M:4/4] B,8[K:treble][K:bass] | x6[K:treble] x2 | x8 |[M:3/4][K:bass] x6 |[M:1/4] x2 |[M:4/4] x8 | %37
 x8 | x8 |[M:9/8] z3 F,3 z3 |] %40

